EdiMM/images/link.svg

<svg xmlns="http://www.w3.org/2000/svg" width="24" height="24" viewBox="0 0 24 24"><path fill="none" d="M0 0h24v24H0V0z"/><path d="M17 7h-3c-.55 0-1 .45-1 1s.45 1 1 1h3c1.65 0 3 1.35 3 3s-1.35 3-3 3h-3c-.55 0-1 .45-1 1s.45 1 1 1h3c2.76 0 5-2.24 5-5s-2.24-5-5-5zm-9 5c0 .55.45 1 1 1h6c.55 0 1-.45 1-1s-.45-1-1-1H9c-.55 0-1 .45-1 1zm2 3H7c-1.65 0-3-1.35-3-3s1.35-3 3-3h3c.55 0 1-.45 1-1s-.45-1-1-1H7c-2.76 0-5 2.24-5 5s2.24 5 5 5h3c.55 0 1-.45 1-1s-.45-1-1-1z"/></svg>

<svg width="24" height="24" viewBox="0 0 24 24" fill="none" xmlns="http://www.w3.org/2000/svg">
<path d="M17 7H14C13.45 7 13 7.45 13 8C13 8.55 13.45 9 14 9H17C18.65 9 20 10.35 20 12C20 13.65 18.65 15 17 15H14C13.45 15 13 15.45 13 16C13 16.55 13.45 17 14 17H17C19.76 17 22 14.76 22 12C22 9.24 19.76 7 17 7ZM8 12C8 12.55 8.45 13 9 13H15C15.55 13 16 12.55 16 12C16 11.45 15.55 11 15 11H9C8.45 11 8 11.45 8 12ZM10 15H7C5.35 15 4 13.65 4 12C4 10.35 5.35 9 7 9H10C10.55 9 11 8.55 11 8C11 7.45 10.55 7 10 7H7C4.24 7 2 9.24 2 12C2 14.76 4.24 17 7 17H10C10.55 17 11 16.55 11 16C11 15.45 10.55 15 10 15Z" fill="white"/>
</svg>
